X:1
T:Title
%%score { ( 1 3 ) | ( 2 4 ) }
L:1/8
Q:1/4=140
M:3/4
K:D
V:1 treble nm="Grand Piano"
V:3 treble 
V:2 bass 
V:4 bass 
V:1
 [A,=FA]2 [A,FA]2 [A,FA]2 | A2 z2 z2 | [A,D=F]4[K:bass] [E,A,E]2 | [=F,A,D]4 z2 | %4
w: H.~M.~Hansen * *||||
 [A,D=F]4 [A,DF]2 | G2 z2 z2 | [CA]6- | [CA]2 z2 z2 | A2 A2 A2 | d4 =c2 | ^A2 =A2 [DG]2 | %11
w: |||||||
 [A,EA]4 [A,EG]2 | [D=F]2 z2 z2 | [D=F]4[K:bass] [G,CE]2 | [=F,D]6- |[M:2/4] [F,D]2 z2 | %16
w: |||||
[M:1/4][K:treble] DD |[M:3/4] [A,=FA]4 [A,FA]2 | [DA]2 G2 [A,CE]2 | [A,D=F]4[K:bass] [E,A,E]2 | %20
w: ||||
 [=F,A,D]4[K:treble] [A,CE]2 | [A,D=F]2 [A,DF]2 [A,DF]2 | G2 z2 z2 | [CEA]4 [CEA]2 |[M:2/4] A4 | %25
w: |||||
[M:1/4] A2 |[M:3/4] d4 =c2 | ^A2 =A2 [DG]2 | [A,EA]4 [A,EG]2 | [D=F]2 z2 z2 | %30
w: |||||
 [D=F]2 [DF]2[K:bass] [G,CE]2 | [=F,D]4 [F,^A,C]2 | [=F,A,D]6- | [F,A,D]6 |] %34
w: ||||
V:2
 D,2 D,2 D,2 | z2 G2 A,,2 | D,4 C,2 | D,4 z2 | D,4 D,2 | z2 =F2 ^A,,2 | [A,,E,]6- | %7
 [A,,E,]2 z2 z2 | [G,=C^D]2 [G,CD]2 [G,CD]2 | [F,A,D]4 [F,A,D]2 | D2- [A,D]2 ^A,2 | C,4 C,2 | %12
 D,2 =F,2 G,2 | A,4 A,,2 | D,6- |[M:2/4] D,2 z2 |[M:1/4] D,D, |[M:3/4] D,4 D,2 | [G,^A,]4 z2 | %19
 D,4 C,2 | D,4 A,,2 | D,2 D,2 D,2 | z2 =F2 ^A,,2 | A,,4 A,,2 |[M:2/4] [A,CE]4 |[M:1/4] [G,=C^D]2 | %26
[M:3/4] [F,A,D]4 [F,A,D]2 | D2- [A,D]2 ^A,2 | C,4 C,2 | D,2 =F,2 G,2 | A,2 A,2 A,,2 | A,,4 A,,2 | %32
 D,6- | D,6 |] %34
V:3
 x6 | [^A,D]4 [=A,CE]2 | x4[K:bass] x2 | x6 | x6 | [G,D]4 [G,DG]2 | x6 | x6 | x6 | x6 | x6 | x6 | %12
 A,2- [A,D]2 [^A,DE]2 | x4[K:bass] x2 | x6 |[M:2/4] x4 |[M:1/4][K:treble] x2 |[M:3/4] x6 | x6 | %19
 x4[K:bass] x2 | x4[K:treble] x2 | x6 | [G,D]4 [^A,DG]2 | x6 |[M:2/4] x4 |[M:1/4] x2 |[M:3/4] x6 | %27
 x6 | x6 | A,2- [A,D]2 [^A,DE]2 | x4[K:bass] x2 | x6 | x6 | x6 |] %34
V:4
 x6 | G,4 z2 | x6 | x6 | x6 | ^A,,4 z2 | x6 | x6 | x6 | x6 | G,2 z2 z2 | x6 | x6 | x6 | x6 | %15
[M:2/4] x4 |[M:1/4] x2 |[M:3/4] x6 | z2 D2 A,,2 | x6 | x6 | x6 | ^A,,4 z2 | x6 |[M:2/4] x4 | %25
[M:1/4] x2 |[M:3/4] x6 | G,2 z2 z2 | x6 | x6 | x6 | x6 | x6 | x6 |] %34

